source/img/svg/features3-icon.svg

<svg width="64" height="64" viewBox="0 0 64 64" fill="none" xmlns="http://www.w3.org/2000/svg">
<path d="M10.8877 51.0811C10.6872 51.2744 10.4759 51.3711 10.2539 51.3711C10.1536 51.3711 10.0498 51.3496 9.94238 51.3066C9.83496 51.2565 9.70964 51.1742 9.56641 51.0596C9.30143 50.859 9.16895 50.6478 9.16895 50.4258C9.16895 50.2826 9.2513 50.1143 9.41602 49.9209C9.57357 49.7275 9.78125 49.527 10.0391 49.3193C10.2969 49.1045 10.5869 48.8861 10.9092 48.6641C11.2386 48.4421 11.5716 48.2308 11.9082 48.0303C12.2448 47.8298 12.5706 47.6471 12.8857 47.4824C13.2008 47.3177 13.473 47.1816 13.7021 47.0742C13.8382 47.0169 13.9635 46.974 14.0781 46.9453C14.1927 46.9167 14.3109 46.9023 14.4326 46.9023C14.6761 46.9023 14.8838 46.9453 15.0557 47.0312C15.2347 47.11 15.3851 47.221 15.5068 47.3643C15.6286 47.5075 15.7288 47.6722 15.8076 47.8584C15.8936 48.0374 15.9616 48.2272 16.0117 48.4277C16.069 48.6211 16.1156 48.8216 16.1514 49.0293C16.1872 49.2298 16.223 49.416 16.2588 49.5879C16.3161 49.8815 16.3734 50.2217 16.4307 50.6084C16.4951 50.988 16.5524 51.3854 16.6025 51.8008C16.6527 52.209 16.6992 52.6172 16.7422 53.0254C16.7923 53.4264 16.8353 53.8024 16.8711 54.1533C16.9069 54.4971 16.932 54.7979 16.9463 55.0557C16.9678 55.3063 16.9785 55.4854 16.9785 55.5928C16.9785 56.0941 16.7314 56.3877 16.2373 56.4736C15.9652 56.5309 15.7861 56.5632 15.7002 56.5703C15.6143 56.5775 15.557 56.5811 15.5283 56.5811C15.3063 56.5811 15.1273 56.5166 14.9912 56.3877C14.8623 56.2588 14.7871 56.0654 14.7656 55.8076C14.6868 54.848 14.5973 53.8955 14.4971 52.9502C14.3968 51.9977 14.2428 51.0524 14.0352 50.1143C13.9922 49.9066 13.917 49.749 13.8096 49.6416C13.7021 49.5342 13.5732 49.4805 13.4229 49.4805C13.2796 49.4805 13.1006 49.5378 12.8857 49.6523C12.6709 49.7669 12.4453 49.9066 12.209 50.0713C11.9727 50.236 11.7363 50.4115 11.5 50.5977C11.2708 50.7767 11.0667 50.9378 10.8877 51.0811ZM18.9658 52.7783C18.9658 52.0049 19.1055 51.2816 19.3848 50.6084C19.6712 49.9281 20.0579 49.3408 20.5449 48.8467C21.0391 48.3454 21.6156 47.9515 22.2744 47.665C22.9333 47.3786 23.6423 47.2354 24.4014 47.2354C25.2106 47.2354 25.9697 47.3714 26.6787 47.6436C27.3877 47.9085 28.0036 48.2738 28.5264 48.7393C29.0563 49.1976 29.4717 49.7383 29.7725 50.3613C30.0804 50.9844 30.2344 51.6504 30.2344 52.3594C30.2344 52.8249 30.1592 53.276 30.0088 53.7129C29.8584 54.1497 29.6436 54.5579 29.3643 54.9375C29.0921 55.3171 28.7627 55.6644 28.376 55.9795C27.9964 56.2946 27.5739 56.5667 27.1084 56.7959C26.6429 57.0179 26.1416 57.1898 25.6045 57.3115C25.0745 57.4404 24.5267 57.5049 23.9609 57.5049C23.209 57.5049 22.5251 57.3903 21.9092 57.1611C21.2933 56.9391 20.7669 56.624 20.3301 56.2158C19.9004 55.8005 19.5638 55.3027 19.3203 54.7227C19.084 54.1426 18.9658 53.4945 18.9658 52.7783ZM28.0752 52.7783C28.0752 52.2985 27.9678 51.8438 27.7529 51.4141C27.5381 50.9844 27.2445 50.6084 26.8721 50.2861C26.4997 49.9639 26.0628 49.7096 25.5615 49.5234C25.0602 49.3301 24.5267 49.2334 23.9609 49.2334C23.5671 49.2334 23.1982 49.3122 22.8545 49.4697C22.5107 49.6201 22.2135 49.8278 21.9629 50.0928C21.7122 50.3506 21.5117 50.6585 21.3613 51.0166C21.2181 51.3675 21.1465 51.7471 21.1465 52.1553C21.1465 53.2295 21.4186 54.0602 21.9629 54.6475C22.5072 55.2347 23.2699 55.5283 24.251 55.5283C24.7738 55.5283 25.2679 55.4567 25.7334 55.3135C26.1989 55.1702 26.6035 54.9733 26.9473 54.7227C27.2982 54.472 27.5739 54.182 27.7744 53.8525C27.9749 53.516 28.0752 53.1579 28.0752 52.7783ZM31.4697 52.7783C31.4697 52.0049 31.6094 51.2816 31.8887 50.6084C32.1751 49.9281 32.5618 49.3408 33.0488 48.8467C33.543 48.3454 34.1195 47.9515 34.7783 47.665C35.4372 47.3786 36.1462 47.2354 36.9053 47.2354C37.7145 47.2354 38.4736 47.3714 39.1826 47.6436C39.8916 47.9085 40.5075 48.2738 41.0303 48.7393C41.5602 49.1976 41.9756 49.7383 42.2764 50.3613C42.5843 50.9844 42.7383 51.6504 42.7383 52.3594C42.7383 52.8249 42.6631 53.276 42.5127 53.7129C42.3623 54.1497 42.1475 54.5579 41.8682 54.9375C41.596 55.3171 41.2666 55.6644 40.8799 55.9795C40.5003 56.2946 40.0778 56.5667 39.6123 56.7959C39.1468 57.0179 38.6455 57.1898 38.1084 57.3115C37.5785 57.4404 37.0306 57.5049 36.4648 57.5049C35.7129 57.5049 35.029 57.3903 34.4131 57.1611C33.7972 56.9391 33.2708 56.624 32.834 56.2158C32.4043 55.8005 32.0677 55.3027 31.8242 54.7227C31.5879 54.1426 31.4697 53.4945 31.4697 52.7783ZM40.5791 52.7783C40.5791 52.2985 40.4717 51.8438 40.2568 51.4141C40.042 50.9844 39.7484 50.6084 39.376 50.2861C39.0036 49.9639 38.5667 49.7096 38.0654 49.5234C37.5641 49.3301 37.0306 49.2334 36.4648 49.2334C36.071 49.2334 35.7021 49.3122 35.3584 49.4697C35.0146 49.6201 34.7174 49.8278 34.4668 50.0928C34.2161 50.3506 34.0156 50.6585 33.8652 51.0166C33.722 51.3675 33.6504 51.7471 33.6504 52.1553C33.6504 53.2295 33.9225 54.0602 34.4668 54.6475C35.0111 55.2347 35.7738 55.5283 36.7549 55.5283C37.2777 55.5283 37.7718 55.4567 38.2373 55.3135C38.7028 55.1702 39.1074 54.9733 39.4512 54.7227C39.8021 54.472 40.0778 54.182 40.2783 53.8525C40.4788 53.516 40.5791 53.1579 40.5791 52.7783ZM50.9346 45.2266C50.999 45.026 51.0921 44.8792 51.2139 44.7861C51.3356 44.6859 51.4753 44.6357 51.6328 44.6357C51.6973 44.6357 51.7653 44.6429 51.8369 44.6572C51.9157 44.6715 51.9945 44.7002 52.0732 44.7432L52.4707 44.9473C52.6569 45.0332 52.793 45.1406 52.8789 45.2695C52.972 45.3984 53.0186 45.5452 53.0186 45.71C53.0186 45.8317 52.9971 45.957 52.9541 46.0859C52.682 46.8952 52.4062 47.6937 52.127 48.4814C51.8477 49.2692 51.5576 50.0641 51.2568 50.8662C51.2139 50.9736 51.1924 51.0667 51.1924 51.1455C51.1924 51.2673 51.2425 51.3281 51.3428 51.3281C51.443 51.3281 51.5612 51.2744 51.6973 51.167C52.0768 50.9163 52.4814 50.7194 52.9111 50.5762C53.348 50.4329 53.7884 50.3613 54.2324 50.3613C54.7266 50.3613 55.1562 50.458 55.5215 50.6514C55.8939 50.8376 56.2018 51.0846 56.4453 51.3926C56.6888 51.7005 56.8714 52.0514 56.9932 52.4453C57.1149 52.8392 57.1758 53.2438 57.1758 53.6592C57.1758 54.2035 57.0791 54.7012 56.8857 55.1523C56.6924 55.6035 56.4274 55.9938 56.0908 56.3232C55.7614 56.6455 55.3783 56.8962 54.9414 57.0752C54.5046 57.2614 54.0462 57.3545 53.5664 57.3545C53.1439 57.3545 52.7464 57.2721 52.374 57.1074C52.0016 56.9427 51.6758 56.7135 51.3965 56.4199C51.1172 56.1191 50.8952 55.7682 50.7305 55.3672C50.5729 54.959 50.4941 54.515 50.4941 54.0352C50.4941 53.8919 50.5013 53.7451 50.5156 53.5947C50.5371 53.4443 50.5586 53.2975 50.5801 53.1543L50.666 52.6172L50.6016 52.5957C50.1504 53.8418 49.6992 55.0771 49.248 56.3018C48.7969 57.5264 48.36 58.7653 47.9375 60.0186C47.8086 60.4124 47.5723 60.6094 47.2285 60.6094C47.1641 60.6094 47.0924 60.6022 47.0137 60.5879C46.9421 60.5736 46.8597 60.5449 46.7666 60.502L46.3799 60.2979C46.0218 60.126 45.8428 59.8717 45.8428 59.5352C45.8428 59.4062 45.8678 59.2809 45.918 59.1592C46.3262 57.9489 46.7451 56.7529 47.1748 55.5713C47.6045 54.3896 48.0413 53.2008 48.4854 52.0049C48.5068 51.9404 48.5247 51.8831 48.5391 51.833C48.5605 51.7757 48.5713 51.7292 48.5713 51.6934C48.5713 51.6217 48.5355 51.5859 48.4639 51.5859C48.3851 51.5859 48.2669 51.6289 48.1094 51.7148C47.8659 51.8581 47.6045 51.9691 47.3252 52.0479C47.0531 52.1195 46.7738 52.1553 46.4873 52.1553C46.1149 52.1553 45.7747 52.0872 45.4668 51.9512C45.1589 51.8079 44.8939 51.6146 44.6719 51.3711C44.457 51.1276 44.2887 50.8411 44.167 50.5117C44.0524 50.1751 43.9951 49.8135 43.9951 49.4268C43.9951 49.2406 44.0094 49.0651 44.0381 48.9004C44.0667 48.7285 44.099 48.5745 44.1348 48.4385C44.1777 48.2952 44.2171 48.1735 44.2529 48.0732C44.2959 47.973 44.3281 47.8978 44.3496 47.8477C44.3926 47.7474 44.4212 47.6686 44.4355 47.6113C44.4499 47.5469 44.457 47.4932 44.457 47.4502C44.457 47.4144 44.4499 47.3893 44.4355 47.375C44.4212 47.3607 44.4141 47.3356 44.4141 47.2998C44.4141 47.2568 44.4427 47.1995 44.5 47.1279C44.5573 47.0492 44.6468 46.9668 44.7686 46.8809C45.0693 46.6732 45.3844 46.5156 45.7139 46.4082C46.0505 46.3008 46.3799 46.2471 46.7021 46.2471C47.0674 46.2471 47.4147 46.3115 47.7441 46.4404C48.0807 46.5622 48.3743 46.7448 48.625 46.9883C48.8828 47.2318 49.0869 47.5326 49.2373 47.8906C49.3949 48.2487 49.4736 48.6605 49.4736 49.126C49.4736 49.1403 49.4951 49.0938 49.5381 48.9863C49.5882 48.8789 49.6455 48.7464 49.71 48.5889C49.7816 48.4242 49.8532 48.2523 49.9248 48.0732C49.9964 47.8942 50.0537 47.7402 50.0967 47.6113C50.2399 47.2103 50.3796 46.8128 50.5156 46.4189C50.6589 46.0251 50.7985 45.6276 50.9346 45.2266ZM53.9209 55.5713C54.1429 55.5713 54.3363 55.5212 54.501 55.4209C54.6729 55.3135 54.8125 55.1774 54.9199 55.0127C55.0273 54.848 55.1061 54.6618 55.1562 54.4541C55.2135 54.2464 55.2422 54.0387 55.2422 53.8311C55.2422 53.5804 55.1992 53.3548 55.1133 53.1543C55.0345 52.9466 54.9235 52.7712 54.7803 52.6279C54.6442 52.4847 54.4831 52.3737 54.2969 52.2949C54.1107 52.2161 53.9137 52.1768 53.7061 52.1768C53.6058 52.1768 53.4948 52.1875 53.373 52.209C53.2585 52.2305 53.1439 52.2663 53.0293 52.3164C52.9219 52.3594 52.8216 52.4167 52.7285 52.4883C52.6426 52.5599 52.5853 52.6423 52.5566 52.7354C52.5853 52.7926 52.5996 52.8356 52.5996 52.8643C52.5996 52.9072 52.5924 52.9609 52.5781 53.0254C52.5638 53.0898 52.5495 53.1686 52.5352 53.2617C52.5208 53.3262 52.5101 53.3942 52.5029 53.4658C52.4958 53.5303 52.4922 53.609 52.4922 53.7021C52.4922 53.9098 52.5208 54.1247 52.5781 54.3467C52.6426 54.5687 52.7357 54.7728 52.8574 54.959C52.9792 55.138 53.1296 55.2848 53.3086 55.3994C53.4876 55.514 53.6917 55.5713 53.9209 55.5713ZM46.0039 49.0615C46.0039 49.1904 46.0182 49.3337 46.0469 49.4912C46.0755 49.6416 46.1221 49.7848 46.1865 49.9209C46.251 50.057 46.3405 50.1715 46.4551 50.2646C46.5697 50.3577 46.7129 50.4043 46.8848 50.4043C47.0853 50.4043 47.2393 50.3076 47.3467 50.1143C47.4613 49.9137 47.5186 49.6846 47.5186 49.4268C47.5186 49.2692 47.4935 49.1117 47.4434 48.9541C47.4004 48.7965 47.3324 48.6569 47.2393 48.5352C47.1462 48.4134 47.028 48.3132 46.8848 48.2344C46.7415 48.1556 46.5732 48.1162 46.3799 48.1162C46.3011 48.1162 46.2367 48.152 46.1865 48.2236C46.1364 48.2952 46.097 48.3812 46.0684 48.4814C46.0469 48.5817 46.029 48.6855 46.0146 48.793C46.0075 48.9004 46.0039 48.9899 46.0039 49.0615Z" fill="#6DAD45"/>
<path d="M46.8231 33.231C51.3193 30.4841 52.9234 24.4611 49.903 18.7949C48.2792 15.7487 44.9208 15.6129 41.471 14.9767C35.1712 13.8148 37.5943 3.41385 28.6298 5.20733C19.9477 6.94432 19.2196 15.6651 21.1016 20.6839" stroke="#6DAD45" stroke-width="2" stroke-linecap="round" stroke-linejoin="round"/>
<path d="M22.9251 25.8524C26.7267 24.8227 32.4943 23.9775 37.7469 26.1065C46.5571 29.6774 50.5818 40.2636 50.5818 40.2636C50.5818 40.2636 40.3222 45.0601 31.512 41.4891C26.3377 39.3919 22.814 34.8749 20.7869 31.5038" stroke="#6DAD45" stroke-width="2" stroke-linecap="round" stroke-linejoin="round"/>
<path d="M44.916 31.333C42.9888 32.5419 39.3671 36.5132 40.2976 42.7276" stroke="#6DAD45" stroke-width="2" stroke-linecap="round" stroke-linejoin="round"/>
<path d="M22.9632 25.7536C23.2787 23.3387 21.7187 19.0048 13.1883 17.1393C12.9422 21.0195 14.0101 24.6584 14.5747 25.9928C13.2403 26.5575 9.94024 28.426 7.41524 31.3826C14.8372 35.9828 19.1991 33.4039 20.654 31.4509" stroke="#6DAD45" stroke-width="2" stroke-linecap="round" stroke-linejoin="round"/>
<circle cx="29.8864" cy="13.9909" r="2.50941" stroke="#6DAD45" stroke-width="2" stroke-linecap="round" stroke-linejoin="round"/>
</svg>

<svg width="64" height="64" fill="none" xmlns="http://www.w3.org/2000/svg"><path d="M10.888 51.081c-.2.193-.412.29-.634.29a.836.836 0 0 1-.312-.064 1.953 1.953 0 0 1-.376-.247c-.265-.201-.397-.412-.397-.634 0-.143.082-.312.247-.505a4.2 4.2 0 0 1 .623-.602c.258-.215.548-.433.87-.655a21.2 21.2 0 0 1 2.793-1.59c.136-.057.261-.1.376-.129.115-.028.233-.043.355-.043.243 0 .45.043.623.13.179.078.33.189.45.332.123.144.223.308.302.494.086.18.154.37.204.57.057.193.104.394.14.601.035.2.071.387.107.559.057.294.114.634.172 1.02.064.38.121.777.171 1.193.05.408.097.816.14 1.224.05.401.093.777.13 1.128.035.344.06.645.074.903.022.25.032.43.032.537 0 .501-.247.795-.74.88a5.63 5.63 0 0 1-.538.097 2.137 2.137 0 0 1-.172.011.749.749 0 0 1-.537-.193c-.129-.13-.204-.323-.225-.58-.08-.96-.169-1.913-.269-2.858a25.45 25.45 0 0 0-.462-2.836c-.043-.207-.118-.365-.225-.472a.528.528 0 0 0-.387-.162c-.143 0-.322.058-.537.172-.215.115-.44.255-.677.42-.236.164-.473.34-.709.526-.23.179-.433.34-.612.483zm8.078 1.697a5.543 5.543 0 0 1 1.58-3.932 5.463 5.463 0 0 1 1.728-1.181 5.277 5.277 0 0 1 2.127-.43 6.3 6.3 0 0 1 2.278.409c.709.264 1.325.63 1.847 1.095.53.459.946 1 1.247 1.622a4.45 4.45 0 0 1 .461 1.998c0 .466-.075.917-.225 1.354-.15.437-.365.845-.645 1.224-.272.38-.601.727-.988 1.043-.38.315-.802.587-1.268.816a7.154 7.154 0 0 1-1.503.516 6.93 6.93 0 0 1-1.644.193c-.752 0-1.436-.115-2.052-.344a4.53 4.53 0 0 1-1.579-.945 4.439 4.439 0 0 1-1.01-1.493c-.236-.58-.354-1.228-.354-1.945zm9.11 0c0-.48-.108-.934-.323-1.364a3.623 3.623 0 0 0-.88-1.128 4.235 4.235 0 0 0-1.312-.763 4.41 4.41 0 0 0-1.6-.29c-.394 0-.763.08-1.106.237-.344.15-.642.358-.892.623a2.96 2.96 0 0 0-.602.924c-.143.35-.215.73-.215 1.138 0 1.075.273 1.905.817 2.492.544.588 1.307.881 2.288.881.523 0 1.017-.071 1.482-.215a4.08 4.08 0 0 0 1.214-.59c.351-.251.627-.541.827-.87.2-.337.301-.695.301-1.075zm3.394 0a5.543 5.543 0 0 1 1.58-3.932 5.463 5.463 0 0 1 1.728-1.181 5.277 5.277 0 0 1 2.127-.43 6.3 6.3 0 0 1 2.278.409c.709.264 1.325.63 1.847 1.095.53.459.946 1 1.246 1.622a4.45 4.45 0 0 1 .462 1.998c0 .466-.075.917-.225 1.354-.15.437-.365.845-.645 1.224-.272.38-.601.727-.988 1.043-.38.315-.802.587-1.268.816a7.154 7.154 0 0 1-1.504.516 6.93 6.93 0 0 1-1.643.193c-.752 0-1.436-.115-2.052-.344a4.53 4.53 0 0 1-1.579-.945 4.439 4.439 0 0 1-1.01-1.493c-.236-.58-.354-1.228-.354-1.945zm9.11 0c0-.48-.108-.934-.323-1.364a3.623 3.623 0 0 0-.881-1.128 4.235 4.235 0 0 0-1.31-.763 4.41 4.41 0 0 0-1.601-.29c-.394 0-.763.08-1.107.237-.343.15-.64.358-.891.623a2.96 2.96 0 0 0-.602.924c-.143.35-.215.73-.215 1.138 0 1.075.273 1.905.817 2.492.544.588 1.307.881 2.288.881.523 0 1.017-.071 1.482-.215a4.08 4.08 0 0 0 1.214-.59c.351-.251.627-.541.827-.87.2-.337.301-.695.301-1.075zm10.355-7.551c.064-.201.157-.348.279-.44a.64.64 0 0 1 .419-.151c.064 0 .132.007.204.021a.785.785 0 0 1 .236.086l.398.204a.953.953 0 0 1 .408.322c.093.13.14.276.14.441 0 .122-.022.247-.065.376a140.442 140.442 0 0 1-1.697 4.78.773.773 0 0 0-.065.28c0 .121.05.182.15.182.101 0 .22-.054.355-.161.38-.25.784-.448 1.214-.59a4.216 4.216 0 0 1 1.321-.216c.495 0 .924.097 1.29.29.372.187.68.434.923.742.244.307.426.658.548 1.052.122.394.183.799.183 1.214a3.75 3.75 0 0 1-.29 1.493 3.551 3.551 0 0 1-1.944 1.923 3.47 3.47 0 0 1-1.376.28 2.91 2.91 0 0 1-1.192-.248 3.024 3.024 0 0 1-.977-.687c-.28-.3-.502-.652-.666-1.053a3.667 3.667 0 0 1-.237-1.332c0-.143.007-.29.022-.44l.064-.44.086-.538-.064-.021a706.795 706.795 0 0 1-1.354 3.706 141.788 141.788 0 0 0-1.31 3.717c-.13.393-.366.59-.71.59-.064 0-.136-.007-.214-.021a1.139 1.139 0 0 1-.247-.086l-.387-.204c-.358-.172-.537-.426-.537-.763 0-.129.025-.254.075-.376.408-1.21.827-2.406 1.257-3.588.43-1.181.866-2.37 1.31-3.566.022-.065.04-.122.054-.172a.422.422 0 0 0 .032-.14c0-.071-.035-.107-.107-.107-.079 0-.197.043-.355.129a3.312 3.312 0 0 1-.784.333 3.279 3.279 0 0 1-.838.107c-.372 0-.712-.068-1.02-.204a2.478 2.478 0 0 1-.795-.58 2.696 2.696 0 0 1-.505-.86 3.344 3.344 0 0 1-.172-1.084c0-.186.014-.362.043-.527.029-.172.061-.325.097-.462.043-.143.082-.265.118-.365l.097-.225c.043-.1.071-.18.085-.237a.763.763 0 0 0 .022-.16c0-.037-.007-.062-.022-.076-.014-.014-.02-.04-.02-.075 0-.043.028-.1.085-.172a1.14 1.14 0 0 1 .269-.247c.3-.208.615-.365.945-.473a3.24 3.24 0 0 1 .988-.16c.365 0 .713.064 1.042.192.337.122.63.305.881.548.258.244.462.545.612.903.158.358.237.77.237 1.235 0 .014.021-.032.064-.14.05-.107.108-.24.172-.397.072-.165.143-.337.215-.516.071-.179.129-.333.172-.462.143-.4.283-.798.419-1.192.143-.394.282-.791.419-1.192zM53.92 55.57c.222 0 .415-.05.58-.15a1.35 1.35 0 0 0 .419-.408c.107-.165.186-.351.236-.559.058-.208.086-.415.086-.623 0-.25-.043-.476-.129-.677a1.471 1.471 0 0 0-.333-.526 1.425 1.425 0 0 0-.483-.333 1.5 1.5 0 0 0-.59-.118c-.101 0-.212.01-.334.032a1.59 1.59 0 0 0-.344.107 1.26 1.26 0 0 0-.3.172.52.52 0 0 0-.172.247c.028.058.043.1.043.13a.771.771 0 0 1-.022.16 3.722 3.722 0 0 0-.043.237 2.208 2.208 0 0 0-.043.44c0 .208.029.423.086.645.065.222.158.426.28.612.121.179.272.326.45.44.18.115.384.172.613.172zm-7.917-6.51c0 .13.014.273.043.43.029.15.075.294.14.43.064.136.154.25.268.344a.66.66 0 0 0 .43.14c.2 0 .354-.097.462-.29a1.37 1.37 0 0 0 .172-.688c0-.158-.026-.315-.076-.473a1.202 1.202 0 0 0-.204-.419 1.117 1.117 0 0 0-.354-.3 1.032 1.032 0 0 0-.505-.119.227.227 0 0 0-.194.108.856.856 0 0 0-.118.257c-.021.1-.039.204-.053.312a3.647 3.647 0 0 0-.011.269z" fill="#6DAD45"/><path d="M46.823 33.231c4.496-2.747 6.1-8.77 3.08-14.436-1.624-3.046-4.982-3.182-8.432-3.818-6.3-1.162-3.877-11.563-12.841-9.77-8.682 1.737-9.41 10.458-7.528 15.477" stroke="#6DAD45" stroke-width="2" stroke-linecap="round" stroke-linejoin="round"/><path d="M22.925 25.852c3.802-1.03 9.57-1.875 14.822.255 8.81 3.57 12.835 14.157 12.835 14.157s-10.26 4.796-19.07 1.225c-5.174-2.097-8.698-6.614-10.725-9.985m24.129-.171c-1.927 1.209-5.549 5.18-4.618 11.395M22.963 25.754c.316-2.415-1.244-6.75-9.775-8.615-.246 3.88.822 7.52 1.387 8.854-1.335.565-4.635 2.433-7.16 5.39 7.422 4.6 11.784 2.02 13.239.068" stroke="#6DAD45" stroke-width="2" stroke-linecap="round" stroke-linejoin="round"/><circle cx="29.886" cy="13.991" r="2.509" stroke="#6DAD45" stroke-width="2" stroke-linecap="round" stroke-linejoin="round"/></svg>
